!!!COM: Bach, Johann Sebastian
!!!CDT: 1685/3//-1750/7/28/
!!!OTL@@DE: Nun ruhen alle Waelder
!!!OTL@EN:  Now rests all the forest
!!!AGN: 4-Part Chorale
!!!SCT: BH 117
!!!SCT: BWV 244
**harm	**root	**kern	**kern	**kern	**kern
!	!	!bass	!tenor	!alto	!soprno
*	*Iorgan	*Iorgan	*Iorgan	*Iorgan	*Iorgan
*M4/4	*M4/4	*M4/4	*M4/4	*M4/4	*M4/4
*met(c)	*met(c)	*met(c)	*met(c)	*met(c)	*met(c)
*MM60	*MM60	*MM60	*MM60	*MM60	*MM60
*k[b-e-a-d-]	*k[b-e-a-d-]	*k[b-e-a-d-]	*k[b-e-a-d-]	*k[b-e-a-d-]	*k[b-e-a-d-]
*A-:	*A-:	*A-:	*A-:	*A-:	*A-:
I	4AA-	4A-	4e-	4a-	4cc
=1	=1	=1	=1	=1	=1
IV	4DD-	8d-	4d-	4f	4a-
.	.	8c	.	.	.
viiob	4GG	4B-	4d-	4g	4b-
I	4AA-	4.A-	8e-	8a-	8cc
.	.	.	8d-	8b-	8dd-
I	4AA-	.	8c	4cc	4ee-
.	.	8G	8B-	.	.
=2	=2	=2	=2	=2	=2
IV7b	4DD-	4F	4A-	4cc	2dd-
V7b	4EE-	4G	4e-	4b-	.
I;	4AA-;	4A-;	4e-;	4a-;	4cc;
vi	4FF	4F	4f	4a-	8cc
.	.	.	.	.	8dd-
=3	=3	=3	=3	=3	=3
Ib	4AA-	8C	4e-	8a-	4ee-
.	.	8BB-	.	8g	.
Ib	4AA-	8C	4e-	8a-	4ee-
.	.	8D-	.	8f	.
V	4EE-	8E-	4e-	8g	4b-
.	.	8D-	.	8f	.
iii	4CC	4C	4G	4e-	4cc
=4	=4	=4	=4	=4	=4
viib/V	2DD	2F	8A-	4e-	2a-
.	.	.	8G	.	.
.	.	.	4A-	4dn	.
V;	4EE-;	4E-;	4B-;	4e-;	4g;
V7d	4EE-	4D-y	8G	4B-	4e-
.	.	.	8F	.	.
=5	=5	=5	=5	=5	=5
Ib	4AA-	4C	4E-	4e-	4a-
ii	4BB-	4BB-	8F	4d-	4b-
.	.	.	8G	.	.
I	4AA-	8AA-	4A-	8c	4cc
.	.	8BB-	.	8d-	.
Ib	4AA-	8C	4A-	4e-	4cc
.	.	8D-	.	.	.
=6	=6	=6	=6	=6	=6
V;	2.EE-;	2.E-;	2.G;	2.e-;	2.b-;
Vb/vi	4CC	4En	4c	4g	4cc
!!linebreak: 2
=7	=7	=7	=7	=7	=7
vi	4FF	4F	8c	4f	4a-
.	.	.	8d-	.	.
Vb	4EE-	4G	8c	4e-	4b-
.	.	.	8B-	.	.
I	4AA-	4A-	8A-	4e-	8cc
.	.	.	8B-	.	8dd-
V7b/II	4FF	4An	4c	4f	4ee-
=8	=8	=8	=8	=8	=8
ii	2BB-	4B-	8B-	8f	2dd-
.	.	.	8c	8e-	.
.	.	4BB-	8d-	8f	.
.	.	.	8e-	8g	.
VI;	4FF;	4F;	4f;	4an;	4cc;
vi	4FF	4F	4f	4a-	8cc
.	.	.	.	.	8dd-
=9	=9	=9	=9	=9	=9
Vb	4EE-	4G	8e-	4b-	4ee-
.	.	.	8d-	.	.
I	4AA-	4A-	4c	8a-	4ee-
.	.	.	.	8g	.
V7d/V	4BB-	8A-	4dn	4f	4b-
.	.	8G	.	.	.
III	4CC	8F	4G	4g	4cc
.	.	8En	.	.	.
=10	=10	=10	=10	=10	=10
vi	4FF	8F	2c	4g	2a-
.	.	8G	.	.	.
vib	4FF	8A-	.	4f	.
.	.	8B-	.	.	.
III;	4CC;	4c;	4c;	4en;	4g;
iii	4CC	4C	4c	4e-	4e-
=11	=11	=11	=11	=11	=11
vi7	8FF	4F	8c	8e-	4a-
IVc	8DD-	.	8d-	8f	.
iii7c	8CC	4G	8c	8e-	4b-
viio	8GG	.	8B-	8d-	.
I	4AA-	8A-	4A-	8c	4cc
.	.	8G	.	8e-	.
IVb	4DD-	8F	4A-	8f	4dd-
.	.	8E-	.	8g	.
=12	=12	=12	=12	=12	=12
IV7	4DD-	4D-	4f	4a-	4cc
V	4EE-	4E-	8B-	4g	4b-
.	.	.	16c	.	.
.	.	.	16d-	.	.
I;	4AA-;	4AA-;	4c;	4e-;	4a-;
==	==	==	==	==	==
*-	*-	*-	*-	*-	*-
!!chor2scor: -l 2 -s 0.6 -o %b.pmx
!!!YEC: Copyright 1994, David Huron
!!!YEC: Changes/Additions 2001 by Craig Stuart Sapp
!!!YEN: United States of America
!!!SMA: 371 Bach Chorales, edited by Ludwig Erk, C.F. Peters
!!!PDT: 1850, 1865
!!!ONB: Harmony and Root analysis done manually
